app/src/assets/coin-clock.svg

<svg width="47" height="47" viewBox="0 0 47 47" fill="none" xmlns="http://www.w3.org/2000/svg">
<circle cx="23.15" cy="23.85" r="23.15" fill="#FDEAEC"/>
<ellipse cx="19.5337" cy="23.2694" rx="9.74456" ry="4.26324" fill="#FFAABD" fill-opacity="0.79"/>
<path fill-rule="evenodd" clip-rule="evenodd" d="M28.8748 26.3146C27.6768 28.0756 23.9481 29.3597 19.5337 29.3597C15.1194 29.3597 11.3907 28.0756 10.1927 26.3146C9.93017 26.7005 9.78918 27.1094 9.78918 27.5326C9.78918 29.8872 14.152 31.7959 19.5337 31.7959C24.9155 31.7959 29.2783 29.8872 29.2783 27.5326C29.2783 27.1094 29.1373 26.7005 28.8748 26.3146Z" fill="#FFAABD" fill-opacity="0.79"/>
<path fill-rule="evenodd" clip-rule="evenodd" d="M28.8748 30.3211C27.6768 32.0821 23.9481 33.3663 19.5337 33.3663C15.1194 33.3663 11.3907 32.0821 10.1927 30.3211C9.93017 30.7071 9.78918 31.1159 9.78918 31.5392C9.78918 33.8937 14.152 35.8024 19.5337 35.8024C24.9155 35.8024 29.2783 33.8937 29.2783 31.5392C29.2783 31.1159 29.1373 30.7071 28.8748 30.3211Z" fill="#FFAABD" fill-opacity="0.79"/>
<circle cx="30.5423" cy="19.2018" r="7.30425" fill="#FF5379"/>
<path d="M30.5422 14.525V19.9046L33.0391 22.4014" stroke="#FDEAEC"/>
</svg>

<svg width="47" height="47" fill="none" xmlns="http://www.w3.org/2000/svg"><circle cx="23.15" cy="23.85" r="23.15" fill="#FDEAEC"/><ellipse cx="19.534" cy="23.269" rx="9.745" ry="4.263" fill="#FFAABD" fill-opacity=".79"/><path fill-rule="evenodd" clip-rule="evenodd" d="M28.875 26.315c-1.198 1.76-4.927 3.045-9.341 3.045-4.415 0-8.143-1.284-9.341-3.045-.263.386-.404.794-.404 1.218 0 2.354 4.363 4.263 9.745 4.263 5.382 0 9.744-1.909 9.744-4.263 0-.424-.14-.832-.403-1.218z" fill="#FFAABD" fill-opacity=".79"/><path fill-rule="evenodd" clip-rule="evenodd" d="M28.875 30.321c-1.198 1.761-4.927 3.045-9.341 3.045-4.415 0-8.143-1.284-9.341-3.045-.263.386-.404.795-.404 1.218 0 2.355 4.363 4.263 9.745 4.263 5.382 0 9.744-1.908 9.744-4.263 0-.423-.14-.832-.403-1.218z" fill="#FFAABD" fill-opacity=".79"/><circle cx="30.542" cy="19.202" r="7.304" fill="#FF5379"/><path d="M30.542 14.525v5.38L33.04 22.4" stroke="#FDEAEC"/></svg>
